Catalina-light/actions/16/edit-bomb.svg

<svg xmlns="http://www.w3.org/2000/svg" width="16" height="16" viewBox="0 0 16 16">
 <defs>
  <style id="current-color-scheme" type="text/css">
   .ColorScheme-Text { color:#5c616c; } .ColorScheme-Highlight { color:#5294e2; }
  </style>
 </defs>
 <path style="fill:currentColor" class="ColorScheme-Text" d="M 15 1 C 14.011 1.2035 13.092781 1.7820875 12.550781 2.6171875 C 12.362781 2.5329875 12.22 2.5 12 2.5 C 11.844 2.5 11.695688 2.5302187 11.554688 2.5742188 C 11.275688 2.6784188 11.030828 2.79135 10.798828 2.90625 A 6.5 6.5 0 0 0 7.5 2 A 6.5 6.5 0 0 0 1 8.5 A 6.5 6.5 0 0 0 7.5 15 A 6.5 6.5 0 0 0 14 8.5 A 6.5 6.5 0 0 0 13.207031 5.4003906 C 13.295031 5.1124906 13.370781 4.8007125 13.425781 4.4453125 C 13.469781 4.3038125 13.5 4.1564 13.5 4 C 13.5 3.664 13.489688 3.5287969 13.304688 3.2792969 C 13.705687 2.6254969 14.242 2.1969 15 2 L 15 1 z"/>
</svg>

<svg width="16" height="16" viewBox="0 0 16 16" xmlns="http://www.w3.org/2000/svg">
<defs>
<style id="current-color-scheme" type="text/css">.ColorScheme-Text { color:#5c616c; } .ColorScheme-Highlight { color:#5294e2; }</style>
</defs>
<path class="ColorScheme-Text" d="m15 1c-0.989 0.2035-1.9072 0.78209-2.4492 1.6172-0.188-0.0842-0.33078-0.11719-0.55078-0.11719-0.156 0-0.30431 0.030219-0.44531 0.074219-0.279 0.1042-0.52386 0.21713-0.75586 0.33203a6.5 6.5 0 0 0-3.2988-0.90625 6.5 6.5 0 0 0-6.5 6.5 6.5 6.5 0 0 0 6.5 6.5 6.5 6.5 0 0 0 6.5-6.5 6.5 6.5 0 0 0-0.79297-3.0996c0.088-0.2879 0.16375-0.59968 0.21875-0.95508 0.044-0.1415 0.074219-0.28891 0.074219-0.44531 0-0.336-0.010312-0.4712-0.19531-0.7207 0.401-0.6538 0.93731-1.0824 1.6953-1.2793v-1z" fill="currentColor"/>
</svg>
